outputs/icons/editor/line_spacing_round.svg

<svg xmlns="http://www.w3.org/2000/svg" width="1200" height="1200" fill="none"><g clip-path="url(#a)"><path fill="#000" d="M364.497 350.01c22.5 0 33.5-27 17.5-42.5l-114.5-115c-10-10-25.5-10-35.5 0l-114.5 115c-15.5 15.5-4.5 42.5 18 42.5h64.5v500h-64.5c-22.5 0-33.5 27-17.5 42.5l114.5 114.5c10 10 25.5 10 35.5 0l114.5-114.5c15.5-15.5 4.5-42.5-18-42.5h-64.5v-500zm185.498 0h500c27.5 0 50-22.5 50-50s-22.5-50-50-50h-500c-27.5 0-49.998 22.5-49.998 50s22.498 50 49.998 50m500 500h-500c-27.5 0-49.998 22.5-49.998 50s22.498 50 49.998 50h500c27.5 0 50-22.5 50-50s-22.5-50-50-50m0-300h-500c-27.5 0-49.998 22.5-49.998 50s22.498 50 49.998 50h500c27.5 0 50-22.5 50-50s-22.5-50-50-50"/></g><defs><clipPath id="a"><path fill="#fff" d="M0 0h1200v1200H0z"/></clipPath></defs></svg>

<svg width="1200" height="1200" viewBox="0 0 1200 1200" fill="none" xmlns="http://www.w3.org/2000/svg"><g clip-path="url(#clip0_238_239)"><path d="M364.497 350.01C386.997 350.01 397.997 323.01 381.997 307.51L267.497 192.51C257.497 182.51 241.997 182.51 231.997 192.51L117.497 307.51C101.997 323.01 112.997 350.01 135.497 350.01H199.997V850.01H135.497C112.997 850.01 101.997 877.01 117.997 892.51L232.497 1007.01C242.497 1017.01 257.997 1017.01 267.997 1007.01L382.497 892.51C397.997 877.01 386.997 850.01 364.497 850.01H299.997V350.01H364.497ZM549.995 350.01H1049.995C1077.495 350.01 1099.995 327.51 1099.995 300.01C1099.995 272.51 1077.495 250.01 1049.995 250.01H549.995C522.495 250.01 499.997 272.51 499.997 300.01C499.997 327.51 522.495 350.01 549.995 350.01ZM1049.995 850.01H549.995C522.495 850.01 499.997 872.51 499.997 900.01C499.997 927.51 522.495 950.01 549.995 950.01H1049.995C1077.495 950.01 1099.995 927.51 1099.995 900.01C1099.995 872.51 1077.495 850.01 1049.995 850.01ZM1049.995 550.01H549.995C522.495 550.01 499.997 572.51 499.997 600.01C499.997 627.51 522.495 650.01 549.995 650.01H1049.995C1077.495 650.01 1099.995 627.51 1099.995 600.01C1099.995 572.51 1077.495 550.01 1049.995 550.01Z" fill="black"/></g><defs><clipPath id="clip0_238_239"><path width="24" fill="white" d="M0 0H1200V1200H0V0z"/></clipPath></defs></svg>
